src/icons/outline/navigation/chevron-up.svg

<svg width="24" height="24" viewBox="0 0 24 24" fill="none" xmlns="http://www.w3.org/2000/svg">
<g clip-path="url(#clip0_4573_401)">
<path d="M12.6156 6.12449C12.8008 6.20951 12.9792 6.328 13.1285 6.48222L22.7378 16.4114C23.0874 16.7727 23.0874 17.3626 22.7378 17.7239C22.3815 18.092 21.7895 18.092 21.4332 17.7239L12.0011 7.97777L2.56903 17.7239C2.21271 18.092 1.62077 18.092 1.26444 17.7239C1.0834 17.5368 1 17.3001 1 17.0676C1 16.8352 1.0834 16.5985 1.26444 16.4114L10.8737 6.48222C11.023 6.328 11.2015 6.20951 11.3866 6.12449C11.5888 6.03166 11.8056 6 12.0011 6C12.2058 6 12.4164 6.04413 12.6047 6.11977L12.6156 6.12449Z" fill="#3C3B44"/>
</g>
<defs>
<clipPath id="clip0_4573_401">
<rect width="24" height="24" fill="white"/>
</clipPath>
</defs>
</svg>

<svg xmlns="http://www.w3.org/2000/svg" width="24" height="24" fill="none" viewBox="0 0 24 24"><g clip-path="url(#a)"><path fill="currentColor" d="M12.616 6.124a1.7 1.7 0 0 1 .513.358l9.609 9.93c.35.36.35.95 0 1.312a.91.91 0 0 1-1.305 0l-9.432-9.746-9.432 9.746a.91.91 0 0 1-1.305 0A.94.94 0 0 1 1 17.068c0-.233.083-.47.264-.657l9.61-9.929a1.7 1.7 0 0 1 .513-.358c.202-.092.419-.124.614-.124.205 0 .415.044.604.12z"/></g><defs><clipPath id="a"><path fill="currentColor" d="M0 0h24v24H0z"/></clipPath></defs></svg>
